**kern	**text
*clefG2	*
*k[f#c#g#d#]	*
*M4/4	*
*MM205	*
=1	=1
1r	.
=2	=2
1r	.
=3	=3
1r	.
=4	=4
1r	.
=5	=5
1r	.
=6	=6
1r	.
=7	=7
1r	.
=8	=8
1r	.
=9	=9
1r	.
=10	=10
8r	.
8g#L	ka
8g#	n
8g#J	ga
8g#L	e
8g#	su
8g#	gi
8g#J	no
=11	=11
4a	me
8g#L	se
8f#J	e
4g#	ji
8r	.
[8a	da
=12	=12
8aL]	.
8g#	re
8f#	ni
8f#J	mo
8.g#L	to
32bLL	ko
32bJJJ	du
8eL	da
8eJ	mo
=13	=13
8f#L	shi
8e	re
8d#	na
8d#J	i
4e	de
4r	.
=14	=14
8r	.
8g#	ki
8r	.
8g#	to
8g#L	wa
8g#	ta
8g#	shi
8g#J	wa
=15	=15
8.cc#L	i
16cc#Jk	tsu
8g#L	de
8g#J	mo
4.g#	so
[8cc#	tsu
=16	=16
8cc#L]	.
8g#	gi
8g#	ha
8g#J	gi
8g#L	ku
8g#J	ru
8r	.
8g#	ta
=17	=17
*^	*
2r	4g#'	.
.	4cc#'	to
2dd#	4r	ryo
.	8r	.
.	32r	.
.	16.cc#	shi
*v	*v	*
=18	=18
4cc#	ka
4r	.
2r	.
=19	=19
1r	.
=20	=20
1r	.
=21	=21
1r	.
=22	=22
8r	.
8g#L	zu
8g#	tsu
8g#J	u
8g#L	ga
8g#	u
8g#	ta
8g#J	u
=23	=23
4a	pa
8g#L	ke
8f#J	e
4g#	ji
8r	.
[8a	i
=24	=24
8aL]	.
8g#	tsu
8f#	ma
8f#J	de
4g#'	ha
8eL	te
8eJ	mo
=25	=25
8f#L	ha
8e	ri
8d#	wa
8d#J	yo
4e	ji
4r	.
=26	=26
8r	.
8g#L	da
8g#	re
8g#J	mo
8g#L	o
8g#	shi
8g#	ye
8g#J	te
=27	=27
8cc#L	ku
8g#	re
8g#	na
8g#J	i
4g#	de
8r	.
[8cc#	se
=28	=28
8cc#L]	.
8g#	ka
8g#	i
8g#J	wa
8g#L	sa
8g#	ka
8g#	sa
8g#J	ni
=29	=29
8g#L	ma
8f#	wa
8e	ri
8d#J	da
4c#	su
4r	.
=30	=30
2g#	a
4r	.
8c#L	wa
8c#J	re
=31	=31
4.d#	so
8c#	o
4c#	da
8r	.
8c#	ki
=32	=32
8c#L	i
8c#	yo
8c#	ku
8c#J	mo
8c#L	ze
8c#	n
8c#	bu
[8c#J	na
=33	=33
8c#L]	.
8d#	ge
8e	da
8f#J	shi
4g#	te
4r	.
=34	=34
2g#	a
4r	.
8c#L	shi
8c#J	ri
=35	=35
4.d#	ta
8c#	i
4c#	na
4r	.
=36	=36
4c#	fu
4g#	ka
4f#	ku
4e	ma
=37	=37
2c#	de
8r	.
8bL	a
8cc#	no
8dd#J	ne
=38	=38
4ee'	mo
8bL	to
8aJ	i
8r	.
8gnL	pa
8g	i
8eeJ	ma
=39	=39
8r	.
8bL	te
8b	cho
8aJ	o
8bL	da
8bJ	i
4r	.
=40	=40
8eL	ka
8b	ri
8b	n
8bJ	ka
8eL	ma
8b	ri
8b	n
8bJ	ka
=41	=41
8bL	ge
8b	n
8a	o
8gnJ	ha
4a'	ji
4b	te
=42	=42
8eeL	ko
8ee	n
8b	na
8aJ	ka
8a	n
4gn	jo
8ee	do
=43	=43
8r	.
8b	shi
4ee'	yo
4b	ka
4r	.
=44	=44
4e'	cho
8r	.
[8e	to
8eL]	.
8b	shi
8a	e
8bJ	te
=45	=45
8aL	ku
8gn	re
8g	na
8gJ	i
4g	ka
4r	.
=46	=46
8eeL	ka
8ee	n
8b	do
[8aJ	ryo
8a]	.
4gn	ko
32cc#KLL	fo
16.eeJJ	a
=47	=47
8eeL	i
8bJ	fa
4a	tsu
48bLLL	fu
[48bJJ	o
12bJ_	.
4.b]	.
=48	=48
8eL	fu
8b	ro
8b	i
8bJ	do
8eL	ke
8b	ro
8b	i
8bJ	do
=49	=49
8bL	ke
8b	n
8a	o
8gnJ	ha
8aL	ta
8aJ	i
4b	te
=50	=50
8eeL	ze
8ee	n
8b	bu
8aJ	ze
8aL	n
8gn	bu
8g	wa
8eeJ	ra
=51	=51
8r	.
8bL	cha
8ee	a
8eeJ	o
4b	ze
4r	.
=52	=52
4e	sa
8eL	sa
[8eJ	to
8eL]	.
8b	o
8a	do
8bJ	re
=53	=53
8aL	ba
8gn	ka
8g	ta
8gJ	ma
4g	ri
4r	.
=54	=54
1r	.
=55	=55
1r	.
=56	=56
1r	.
=57	=57
1r	.
=58	=58
1r	.
=59	=59
1r	.
=60	=60
1r	.
=61	=61
1r	.
=62	=62
8r	.
8g#L	te
8g#	n
8g#J	de
4g#	yo
8g#L	chi
8g#J	na
=63	=63
8aL	te
8g#	o
8f#	ta
8f#J	ta
4g#	ko
8r	.
[8a	wa
=64	=64
8aL]	.
8g#	za
8f#	to
8f#J	ku
4g#	ru
8eL	ta
[8f#J	cho
=65	=65
8f#L]	.
8e	shi
8d#	de
8d#J	ho
4e	ra
4r	.
=66	=66
8r	.
8g#	ki
8r	.
8g#	to
8g#L	wa
8g#	ta
8g#	shi
8g#J	wa
=67	=67
8cc#L	do
8g#	o
8g#	de
8g#J	mo
4g#	i
8r	.
8cc#	se
=68	=68
8r	.
8g#L	ka
8g#	i
8g#J	no
8g#L	o
8g#	n
8g#	do
8g#J	ga
=69	=69
8g#L	to
8f#	ke
8e	te
8d#J	i
4c#	ku
4r	.
=70	=70
8gnL	a
8a#X	na
8e	ta
*clefF4	*
8A#XJ	to
8F#L	wa
*clefG2	*
8f#	ta
8f#	shi
8c#J	de
=71	=71
8gnL	ra
8ddn	n
8f#	de
[8dnJ	bu
8d]	.
8r	.
4r	.
=72	=72
8gnL	ra
8cc#	n
8f#	de
[8dnJ	bu
8d]	.
8r	.
8eL	ho
8eJ	ra
=73	=73
8bL	ra
8dd#	n
8g#	de
[8eJ	bu
8e]	.
8r	.
4r	.
=74	=74
8aL	a
8e#X	ra
8d#	ma
8c#J	to
8A#X	n
4A#	de
8dn	a
=75	=75
8g#L	ba
8bJ	n
4b	chu
4dn	ru
4r	.
=76	=76
8BL	a
8a#X	shi
8a#	do
8anJ	ri
8aL	yu
8g#	ga
8g#	n
8gnJ	de
=77	=77
8c#L	wa
8ddnJ	n
4gn	tsu
8c#L	wa
8ddJ	n
4g	tsu
=78	=78
2g#	a
4r	.
8c#L	ha
8c#J	ki
=79	=79
4.d#	so
8c#	o
4c#	da
8r	.
[8c#	wa
=80	=80
8c#L]	.
8c#	ta
8c#	shi
8c#J	no
8c#L	ze
8c#	n
8c#	bu
[8c#J	u
=81	=81
8c#L]	.
8d#	ke
8e	to
8f#J	me
4g#	te
4r	.
=82	=82
2g#	a
4r	.
8c#L	so
8c#J	no
=83	=83
4.d#	ryo
8c#	te
4c#	de
4r	.
=84	=84
4c#	u
4g#	ke
4f#	to
4e	me
=85	=85
2c#	te
8r	.
8bL	a
8cc#	no
8dd#J	ne
=86	=86
4ee'	cho
8bL	to
8aJ	ki
8r	.
8gnL	te
8g	yo
8eeJ	da
=87	=87
8eeL	i
8b	ji
8b	na
8aJ	ko
4b	to
4r	.
=88	=88
8eL	ka
8b	ri
8b	n
8bJ	ka
8eL	ma
8b	ri
8b	n
8bJ	ka
=89	=89
8bL	ho
8b	ho
8a	o
8gnJ	tsu
4a'	ne
4b	te
=90	=90
8eeL	da
8ee	te
8b	da
8bJ	te
8aL	ga
8gn	ma
8g	n
[8eeJ	de
=91	=91
8eeL]	.
8b	ki
8ee	na
8eeJ	i
4b	no
4r	.
=92	=92
4e'	mo
8eL	to
[8eJ	su
8eL]	.
8b	te
8a	ki
8bJ	na
=93	=93
8aL	ko
8gn	to
8g	o
8gJ	shi
4g	yo
8r	.
8b	i
=94	=94
8eeL	ta
8ee	i
8b	ta
8bJ	i
8aL	na
8gn	n
8g	te
[8eeJ	na
=95	=95
8eeL]	.
8b	ka
8b	na
8aJ	i
4b	de
4r	.
=96	=96
8eL	pa
8b	re
8b	i
8bJ	do
8eL	ma
8b	re
8b	i
8bJ	do
=97	=97
4b	mo
8aL	to
8gnJ	ha
8aL	ta
8aJ	i
4b	te
=98	=98
8.eeL	ma
16eeJk	te
16bLL	na
16bJ	n
8bJ	te
4a'	i
8gnL	te
8eeJ	ma
=99	=99
8r	.
8b	te
4ee'	ma
4b	te
4r	.
=100	=100
4e	ta
8r	.
8e	ta
8eL	hi
8b	to
8a	ri
8bJ	ni
=101	=101
8aL	na
8gn	ru
8g	ma
8gJ	e
4g	ni
4r	.
=102	=102
1r	.
=103	=103
1r	.
=104	=104
1r	.
=105	=105
1r	.
=106	=106
1r	.
=107	=107
1r	.
=108	=108
1r	.
=109	=109
1r	.
=110	=110
8gnL	a
8a#X	na
8e	ta
*clefF4	*
8A#XJ	to
8F#L	wa
*clefG2	*
8f#	ta
8f#	shi
8c#J	de
=111	=111
8gnL	ra
8ddn	n
8f#	de
[8dnJ	bu
8d]	.
8r	.
4r	.
=112	=112
8gnL	ra
8cc#	n
8f#	de
[8dnJ	bu
8d]	.
8r	.
8eL	ho
8eJ	ra
=113	=113
8bL	ra
8dd#	n
8g#	de
[8eJ	bu
8e]	.
8r	.
4r	.
=114	=114
8aL	a
8e#X	ra
8d#	ma
8c#J	to
8A#X	n
4A#	de
8dn	a
=115	=115
8g#L	ba
8bJ	n
4b	chu
4dn	ru
4r	.
=116	=116
8BL	a
8a#X	shi
8a#	do
8anJ	ri
8aL	yu
8g#	ga
8g#	n
8gnJ	de
=117	=117
8c#L	wa
8ddnJ	n
4gn	tsu
8c#L	wa
8ddJ	n
4g	tsu
=118	=118
4r	.
8A#XL	hya
8ee#XJ	i
4r	.
8A#L	hya
8ee#J	i
=119	=119
4r	.
8g#L	yo
8g#J	i
8g#L	tsu
8aJ	bu
4g#	se
=120	=120
4r	.
8A#XL	hya
8ee#XJ	i
4r	.
8A#L	hya
8ee#J	i
=121	=121
4r	.
8g#L	u
8g#J	ta
8g#L	i
8aJ	da
4g#	se
=122	=122
4r	.
8A#XL	hya
8ee#XJ	i
4r	.
8A#L	hya
8ee#J	i
=123	=123
4r	.
8g#L	kyo
8g#J	o
8g#L	mo
8aJ	ho
4g#	ra
=124	=124
8g#L	tsu
8g#	gi
8cc#	ha
8cc#J	gi
8bL	ku
8bJ	ru
8r	.
8b	ta
=125	=125
8g#L	ma
8g#J	to
[8cc#L	ryo
32cc#KL]	.
16.cc#JJ	shi
4cc#	ka
4r	.
=126	=126
1r	.
=127	=127
4r	.
4b	ne
4cc#	ne
4dd#	ne
=128	=128
4ee'	mo
8bL	to
8aJ	i
8r	.
8gnL	pa
8g	i
8eeJ	ma
=129	=129
8r	.
8bL	te
8b	cho
8aJ	o
8bL	da
8bJ	i
4r	.
=130	=130
8eL	ka
8b	ri
8b	n
8bJ	ka
8eL	ma
8b	ri
8b	n
8bJ	ka
=131	=131
8bL	ge
8b	n
8a	o
8gnJ	ha
4a'	ji
4b	te
=132	=132
8eeL	ko
8ee	n
8b	na
8aJ	ka
8a	n
4gn	jo
8ee	do
=133	=133
8r	.
8b	shi
4ee'	yo
4b	ka
4r	.
=134	=134
4e'	cho
8r	.
[8e	to
8eL]	.
8b	shi
8a	e
8bJ	te
=135	=135
8aL	ku
8gn	re
8g	na
8gJ	i
4g	ka
4r	.
=136	=136
8eeL	ka
8ee	n
8b	do
[8aJ	ryo
8a]	.
4gn	ko
32cc#KLL	fo
16.eeJJ	a
=137	=137
8eeL	i
8bJ	fa
4a	tsu
48bLLL	fu
[48bJJ	o
12b_	.
8bJ]	.
4r	.
=138	=138
8eL	fu
8b	ro
8b	i
8bJ	do
8eL	ke
8b	ro
8b	i
8bJ	do
=139	=139
8bL	ke
8b	n
8a	o
8gnJ	ha
8aL	ta
8aJ	i
4b	te
=140	=140
8eeL	ze
8ee	n
8b	bu
8aJ	ze
8aL	n
8gn	bu
8g	wa
8eeJ	ra
=141	=141
8r	.
8bL	cha
8ee	a
8eeJ	o
4b	ze
4r	.
=142	=142
4e	sa
8eL	sa
[8eJ	to
8eL]	.
8b	o
8a	do
8bJ	te
=143	=143
8aL	i
8b	na
8cc#	ku
8dd#J	na
4ee	re
4r	.
=144	=144
4.ee	chu
8b	chu
4a	chu
8gnL	chu
[8eeJ	ba
=145	=145
8eeL]	.
16bL	a
16bJJ	ri
4b'	ya
8bL	pa
8b#X	ri
8bn	ya
8b#XJ	i
=146	=146
4.b	ya
8a	a
4.gn	a
8b	i
=147	=147
4a'	ya
4gn'	pa
4e	pa
4r	.
=148	=148
4.ee	chu
8b	chu
4a	chu
8gnL	chu
[8eeJ	ba
=149	=149
8eeL]	.
16bL	a
16bJJ	ri
4b'	ya
8bL	pa
8b#X	ri
8bn	ya
8b#XJ	i
=150	=150
4.b	ya
8a	a
4.gn	a
8b	i
=151	=151
4a'	ya
4gn'	pa
4e	pa
4r	.
==	==
*-	*-
